Papirus/16x16/apps/libreoffice-base.svg

<?xml version="1.0" encoding="UTF-8" standalone="no"?>
<!-- Created with Inkscape (http://www.inkscape.org/) -->

<svg
   width="16"
   height="16"
   viewBox="0 0 16 16"
   version="1.1"
   id="svg5"
   inkscape:version="1.2.2 (1:1.2.2+202305151914+b0a8486541)"
   sodipodi:docname="libreoffice-base.svg"
   xmlns:inkscape="http://www.inkscape.org/namespaces/inkscape"
   xmlns:sodipodi="http://sodipodi.sourceforge.net/DTD/sodipodi-0.dtd"
   xmlns="http://www.w3.org/2000/svg"
   xmlns:svg="http://www.w3.org/2000/svg">
  <sodipodi:namedview
     id="namedview7"
     pagecolor="#ffffff"
     bordercolor="#000000"
     borderopacity="0.25"
     inkscape:showpageshadow="2"
     inkscape:pageopacity="0.0"
     inkscape:pagecheckerboard="0"
     inkscape:deskcolor="#d1d1d1"
     inkscape:document-units="px"
     showgrid="false"
     inkscape:zoom="51.875"
     inkscape:cx="8"
     inkscape:cy="8"
     inkscape:window-width="1920"
     inkscape:window-height="1008"
     inkscape:window-x="0"
     inkscape:window-y="0"
     inkscape:window-maximized="1"
     inkscape:current-layer="svg5" />
  <defs
     id="defs2" />
  <path
     id="rect339"
     style="fill:#8b3ea7;fill-opacity:1;stroke-linecap:square"
     d="m 4,0 h 5 l 5,5 v 9 c 0,1.107999 -0.892,2 -2,2 H 4 C 2.892,16 2,15.108 2,14 V 2 C 2,0.892 2.892,0 4,0 Z"
     sodipodi:nodetypes="sccssssss" />
  <path
     d="m 9,8 v 5 h 3 V 8 Z m 1,1 h 1 v 1 h -1 z m 0,2 h 1 v 1 h -1 z"
     style="fill:#ffffff"
     id="path407" />
  <path
     d="M 6,6 C 4.89543,6 4,6.44772 4,7 V 8 C 4,8.55228 4.89543,9 6,9 7.10457,9 8,8.55228 8,8 V 7 C 8,6.44772 7.10457,6 6,6 Z M 4,9 v 1 c 0,0.55228 0.89543,1 2,1 1.10457,0 2,-0.44772 2,-1 V 9 C 8,9.55228 7.10457,10 6,10 4.89543,10 4,9.55228 4,9 Z m 0,2 v 1 c 0,0.55228 0.89543,1 2,1 1.10457,0 2,-0.44772 2,-1 V 11 C 8,11.55228 7.10457,12 6,12 4.89543,12 4,11.55228 4,11 Z"
     style="fill:#d48ff7;fill-opacity:1;stroke-width:0.999996"
     id="path435" />
  <path
     d="m 10,0 h 4 v 4 z"
     style="fill:#ab63c5;fill-opacity:1;stroke-width:0.25;stroke-linecap:square"
     id="path1087" />
</svg>

<svg xmlns="http://www.w3.org/2000/svg" width="16" height="16" version="1.1">
 <path style="fill:#8b3ea7" d="M 4,0 H 8 L 14,6 V 14 C 14,15.108 13.108,16 12,16 H 4 C 2.892,16 2,15.108 2,14 V 2 C 2,0.892 2.892,0 4,0 Z"/>
 <path style="fill:#ebd9f1" d="M 9,8 V 13 H 12 V 8 Z M 10,9 H 11 V 10 H 10 Z M 10,11 H 11 V 12 H 10 Z"/>
 <path style="fill:#d48ff7" d="M 6,6 C 4.9,6 4,6.45 4,7 V 8 C 4,8.55 4.9,9 6,9 7.1,9 8,8.55 8,8 V 7 C 8,6.45 7.1,6 6,6 Z M 4,9 v 1 c 0,0.55 0.9,1 2,1 1.1,0 2,-0.45 2,-1 V 9 C 8,9.55 7.1,10 6,10 4.9,10 4,9.55 4,9 Z m 0,2 v 1 c 0,0.55 0.9,1 2,1 1.1,0 2,-0.45 2,-1 V 11 C 8,11.55 7.1,12 6,12 4.9,12 4,11.55 4,11 Z"/>
 <path style="fill:#ab63c5" d="m 10,0 h 4 v 4 z"/>
</svg>
